svg/transport/gas_station_fill.svg

<?xml version="1.0" encoding="UTF-8"?>
<svg width="24px" height="24px" viewBox="0 0 24 24" version="1.1" xmlns="http://www.w3.org/2000/svg" xmlns:xlink="http://www.w3.org/1999/xlink">
    <title>gas_station_fill</title>
    <g id="页面-1" stroke="none" stroke-width="1" fill="none" fill-rule="evenodd">
        <g id="Transport" transform="translate(-672.000000, -48.000000)">
            <g id="gas_station_fill" transform="translate(672.000000, 48.000000)">
                 <path d="M24,0 L24,24 L0,24 L0,0 L24,0 Z M12.5934901,23.257841 L12.5819402,23.2595131 L12.5108777,23.2950439 L12.4918791,23.2987469 L12.4918791,23.2987469 L12.4767152,23.2950439 L12.4056548,23.2595131 C12.3958229,23.2563662 12.3870493,23.2590235 12.3821421,23.2649074 L12.3780323,23.275831 L12.360941,23.7031097 L12.3658947,23.7234994 L12.3769048,23.7357139 L12.4804777,23.8096931 L12.4953491,23.8136134 L12.4953491,23.8136134 L12.5071152,23.8096931 L12.6106902,23.7357139 L12.6232938,23.7196733 L12.6232938,23.7196733 L12.6266527,23.7031097 L12.609561,23.275831 C12.6075724,23.2657013 12.6010112,23.2592993 12.5934901,23.257841 L12.5934901,23.257841 Z M12.8583906,23.1452862 L12.8445485,23.1473072 L12.6598443,23.2396597 L12.6498822,23.2499052 L12.6498822,23.2499052 L12.6471943,23.2611114 L12.6650943,23.6906389 L12.6699349,23.7034178 L12.6699349,23.7034178 L12.678386,23.7104931 L12.8793402,23.8032389 C12.8914285,23.8068999 12.9022333,23.8029875 12.9078286,23.7952264 L12.9118235,23.7811639 L12.8776777,23.1665331 C12.8752882,23.1545897 12.8674102,23.1470016 12.8583906,23.1452862 L12.8583906,23.1452862 Z M12.1430473,23.1473072 C12.1332178,23.1423925 12.1221763,23.1452606 12.1156365,23.1525954 L12.1099173,23.1665331 L12.0757714,23.7811639 C12.0751323,23.7926639 12.0828099,23.8018602 12.0926481,23.8045676 L12.108256,23.8032389 L12.3092106,23.7104931 L12.3186497,23.7024347 L12.3186497,23.7024347 L12.3225043,23.6906389 L12.340401,23.2611114 L12.337245,23.2485176 L12.337245,23.2485176 L12.3277531,23.2396597 L12.1430473,23.1473072 Z" id="MingCute" fill-rule="nonzero"></path>
                <path d="M5,3 C3.89543,3 3,3.89543 3,5 L3,19 C2.44772,19 2,19.4477 2,20 C2,20.5523 2.44772,21 3,21 L15,21 C15.5523,21 16,20.5523 16,20 C16,19.4477 15.5523,19 15,19 L15,14 L16,14 L16,16.5 C16,17.8807 17.1193,19 18.5,19 C19.8807,19 21,17.8807 21,16.5 L21,10.4142 C21,9.88378 20.7893,9.37507 20.4142,9 L17.7071,6.29289 C17.3166,5.90237 16.6834,5.90237 16.2929,6.29289 C15.9024,6.68342 15.9024,7.31658 16.2929,7.70711 L17.3939,8.80814 C17.3676,8.84359 17.3424,8.87996 17.3185,8.91722 C17.1313,9.20781 17.0227,9.54194 17.0032,9.88702 C16.9837,10.2321 17.0539,10.5764 17.2071,10.8862 C17.3602,11.196 17.591,11.4609 17.877,11.655 C18.1631,11.849 18.4945,11.9657 18.839,11.9935 C18.8927,11.9978 18.9464,12 19,12 L19,16.5 C19,16.7761 18.7761,17 18.5,17 C18.2239,17 18,16.7761 18,16.5 L18,14 C18,12.8954 17.1046,12 16,12 L15,12 L15,5 C15,3.89543 14.1046,3 13,3 L5,3 Z M13,10 L13,5 L5,5 L5,10 L13,10 Z" id="形状" fill="#09244B"></path>
            </g>
        </g>
    </g>
</svg>

<svg xmlns="http://www.w3.org/2000/svg" width="24" height="24"><g fill="none" fill-rule="evenodd"><path d="M24 0v24H0V0h24ZM12.593 23.258l-.011.002-.071.035-.02.004-.014-.004-.071-.035c-.01-.004-.019-.001-.024.005l-.004.01-.017.428.005.02.01.013.104.074.015.004.012-.004.104-.074.012-.016.004-.017-.017-.427c-.002-.01-.009-.017-.017-.018Zm.265-.113-.013.002-.185.093-.01.01-.003.011.018.43.005.012.008.007.201.093c.012.004.023 0 .029-.008l.004-.014-.034-.614c-.003-.012-.01-.02-.02-.022Zm-.715.002a.023.023 0 0 0-.027.006l-.006.014-.034.614c0 .012.007.02.017.024l.015-.002.201-.093.01-.008.004-.011.017-.43-.003-.012-.01-.01-.184-.092Z"/><path fill="#09244B" d="M5 3a2 2 0 0 0-2 2v14a1 1 0 1 0 0 2h12a1 1 0 1 0 0-2v-5h1v2.5a2.5 2.5 0 0 0 5 0v-6.086A2 2 0 0 0 20.414 9l-2.707-2.707a1 1 0 1 0-1.414 1.414l1.1 1.101A1.999 1.999 0 0 0 19 12l.001 4.5a.5.5 0 0 1-1 0V14a2 2 0 0 0-2-2h-1V5a2 2 0 0 0-2-2H5Zm8 7V5H5v5h8Z"/></g></svg>
